assets/icons/tailwind.svg

<svg height="15px" xmlns="http://www.w3.org/2000/svg" fill="none" viewBox="0 0 262 33"><path fill-rule="evenodd" clip-rule="evenodd" d="M27 0C19.8 0 15.3 3.6 13.5 10.8C16.2 7.2 19.35 5.85 22.95 6.75C25.004 7.263 26.472 8.754 28.097 10.403C30.744 13.09 33.808 16.2 40.5 16.2C47.7 16.2 52.2 12.6 54 5.4C51.3 9 48.15 10.35 44.55 9.45C42.496 8.937 41.028 7.446 39.403 5.797C36.756 3.11 33.692 0 27 0ZM13.5 16.2C6.3 16.2 1.8 19.8 0 27C2.7 23.4 5.85 22.05 9.45 22.95C11.504 23.464 12.972 24.954 14.597 26.603C17.244 29.29 20.308 32.4 27 32.4C34.2 32.4 38.7 28.8 40.5 21.6C37.8 25.2 34.65 26.55 31.05 25.65C28.996 25.137 27.528 23.646 25.903 21.997C23.256 19.31 20.192 16.2 13.5 16.2Z" fill="#38BDF8"/><path fill-rule="evenodd" clip-rule="evenodd" d="M80.996 13.652H76.284V22.772C76.284 25.204 77.88 25.166 80.996 25.014V28.7C74.688 29.46 72.18 27.712 72.18 22.772V13.652H68.684V9.69996H72.18V4.59596L76.284 3.37996V9.69996H80.996V13.652ZM98.958 9.69996H103.062V28.7H98.958V25.964C97.514 27.978 95.272 29.194 92.308 29.194C87.14 29.194 82.846 24.824 82.846 19.2C82.846 13.538 87.14 9.20596 92.308 9.20596C95.272 9.20596 97.514 10.422 98.958 12.398V9.69996ZM92.954 25.28C96.374 25.28 98.958 22.734 98.958 19.2C98.958 15.666 96.374 13.12 92.954 13.12C89.534 13.12 86.95 15.666 86.95 19.2C86.95 22.734 89.534 25.28 92.954 25.28ZM109.902 6.84996C108.458 6.84996 107.28 5.63396 107.28 4.22796C107.281 3.53297 107.558 2.86682 108.049 2.37539C108.541 1.88395 109.207 1.60728 109.902 1.60596C110.597 1.60728 111.263 1.88395 111.755 2.37539C112.246 2.86682 112.523 3.53297 112.524 4.22796C112.524 5.63396 111.346 6.84996 109.902 6.84996ZM107.85 28.7V9.69996H111.954V28.7H107.85ZM116.704 28.7V0.959961H120.808V28.7H116.704ZM147.446 9.69996H151.778L145.812 28.7H141.784L137.832 15.894L133.842 28.7H129.814L123.848 9.69996H128.18L131.866 22.81L135.856 9.69996H139.77L143.722 22.81L147.446 9.69996ZM156.87 6.84996C155.426 6.84996 154.248 5.63396 154.248 4.22796C154.249 3.53297 154.526 2.86682 155.017 2.37539C155.509 1.88395 156.175 1.60728 156.87 1.60596C157.565 1.60728 158.231 1.88395 158.723 2.37539C159.214 2.86682 159.491 3.53297 159.492 4.22796C159.492 5.63396 158.314 6.84996 156.87 6.84996ZM154.818 28.7V9.69996H158.922V28.7H154.818ZM173.666 9.20596C177.922 9.20596 180.962 12.094 180.962 17.034V28.7H176.858V17.452C176.858 14.564 175.186 13.044 172.602 13.044C169.904 13.044 167.776 14.64 167.776 18.516V28.7H163.672V9.69996H167.776V12.132C169.03 10.156 171.082 9.20596 173.666 9.20596ZM200.418 2.09996H204.522V28.7H200.418V25.964C198.974 27.978 196.732 29.194 193.768 29.194C188.6 29.194 184.306 24.824 184.306 19.2C184.306 13.538 188.6 9.20596 193.768 9.20596C196.732 9.20596 198.974 10.422 200.418 12.398V2.09996ZM194.414 25.28C197.834 25.28 200.418 22.734 200.418 19.2C200.418 15.666 197.834 13.12 194.414 13.12C190.994 13.12 188.41 15.666 188.41 19.2C188.41 22.734 190.994 25.28 194.414 25.28ZM218.278 29.194C212.54 29.194 208.246 24.824 208.246 19.2C208.246 13.538 212.54 9.20596 218.278 9.20596C222.002 9.20596 225.232 11.144 226.752 14.108L223.218 16.16C222.382 14.374 220.52 13.234 218.24 13.234C214.896 13.234 212.35 15.78 212.35 19.2C212.35 22.62 214.896 25.166 218.24 25.166C220.52 25.166 222.382 23.988 223.294 22.24L226.828 24.254C225.232 27.256 222.002 29.194 218.278 29.194ZM233.592 14.944C233.592 18.402 243.814 16.312 243.814 23.342C243.814 27.142 240.508 29.194 236.404 29.194C232.604 29.194 229.868 27.484 228.652 24.748L232.186 22.696C232.794 24.406 234.314 25.432 236.404 25.432C238.228 25.432 239.634 24.824 239.634 23.304C239.634 19.922 229.412 21.822 229.412 15.02C229.412 11.448 232.49 9.20596 236.366 9.20596C239.482 9.20596 242.066 10.65 243.396 13.158L239.938 15.096C239.254 13.614 237.924 12.93 236.366 12.93C234.884 12.93 233.592 13.576 233.592 14.944ZM251.11 14.944C251.11 18.402 261.332 16.312 261.332 23.342C261.332 27.142 258.026 29.194 253.922 29.194C250.122 29.194 247.386 27.484 246.17 24.748L249.704 22.696C250.312 24.406 251.832 25.432 253.922 25.432C255.746 25.432 257.152 24.824 257.152 23.304C257.152 19.922 246.93 21.822 246.93 15.02C246.93 11.448 250.008 9.20596 253.884 9.20596C257 9.20596 259.584 10.65 260.914 13.158L257.456 15.096C256.772 13.614 255.442 12.93 253.884 12.93C252.402 12.93 251.11 13.576 251.11 14.944Z" fill="white"/></svg>

<svg height="15px" xmlns="http://www.w3.org/2000/svg" fill="none" viewBox="0 0 262 33"><g fill-rule="evenodd" clip-path="url(#prefix__clip0)" clip-rule="evenodd"><path fill="#38bdf8" d="M27 0c-7.2 0-11.7 3.6-13.5 10.8 2.7-3.6 5.85-4.95 9.45-4.05 2.054.513 3.522 2.004 5.147 3.653C30.744 13.09 33.808 16.2 40.5 16.2c7.2 0 11.7-3.6 13.5-10.8-2.7 3.6-5.85 4.95-9.45 4.05-2.054-.513-3.522-2.004-5.147-3.653C36.756 3.11 33.692 0 27 0zM13.5 16.2C6.3 16.2 1.8 19.8 0 27c2.7-3.6 5.85-4.95 9.45-4.05 2.054.514 3.522 2.004 5.147 3.653C17.244 29.29 20.308 32.4 27 32.4c7.2 0 11.7-3.6 13.5-10.8-2.7 3.6-5.85 4.95-9.45 4.05-2.054-.513-3.522-2.004-5.147-3.653C23.256 19.31 20.192 16.2 13.5 16.2z"/><path fill="#0f172a" d="M80.996 13.652h-4.712v9.12c0 2.432 1.596 2.394 4.712 2.242V28.7c-6.308.76-8.816-.988-8.816-5.928v-9.12h-3.496V9.7h3.496V4.596l4.104-1.216V9.7h4.712v3.952zM98.958 9.7h4.104v19h-4.104v-2.736c-1.444 2.014-3.686 3.23-6.65 3.23-5.168 0-9.462-4.37-9.462-9.994 0-5.662 4.294-9.994 9.462-9.994 2.964 0 5.206 1.216 6.65 3.192V9.7zm-6.004 15.58c3.42 0 6.004-2.546 6.004-6.08 0-3.534-2.584-6.08-6.004-6.08-3.42 0-6.004 2.546-6.004 6.08 0 3.534 2.584 6.08 6.004 6.08zm16.948-18.43c-1.444 0-2.622-1.216-2.622-2.622a2.627 2.627 0 012.622-2.622 2.627 2.627 0 012.622 2.622c0 1.406-1.178 2.622-2.622 2.622zM107.85 28.7v-19h4.104v19h-4.104zm8.854 0V.96h4.104V28.7h-4.104zm30.742-19h4.332l-5.966 19h-4.028l-3.952-12.806-3.99 12.806h-4.028l-5.966-19h4.332l3.686 13.11 3.99-13.11h3.914l3.952 13.11 3.724-13.11zm9.424-2.85c-1.444 0-2.622-1.216-2.622-2.622a2.627 2.627 0 012.622-2.622 2.627 2.627 0 012.622 2.622c0 1.406-1.178 2.622-2.622 2.622zm-2.052 21.85v-19h4.104v19h-4.104zm18.848-19.494c4.256 0 7.296 2.888 7.296 7.828V28.7h-4.104V17.452c0-2.888-1.672-4.408-4.256-4.408-2.698 0-4.826 1.596-4.826 5.472V28.7h-4.104v-19h4.104v2.432c1.254-1.976 3.306-2.926 5.89-2.926zM200.418 2.1h4.104v26.6h-4.104v-2.736c-1.444 2.014-3.686 3.23-6.65 3.23-5.168 0-9.462-4.37-9.462-9.994 0-5.662 4.294-9.994 9.462-9.994 2.964 0 5.206 1.216 6.65 3.192V2.1zm-6.004 23.18c3.42 0 6.004-2.546 6.004-6.08 0-3.534-2.584-6.08-6.004-6.08-3.42 0-6.004 2.546-6.004 6.08 0 3.534 2.584 6.08 6.004 6.08zm23.864 3.914c-5.738 0-10.032-4.37-10.032-9.994 0-5.662 4.294-9.994 10.032-9.994 3.724 0 6.954 1.938 8.474 4.902l-3.534 2.052c-.836-1.786-2.698-2.926-4.978-2.926-3.344 0-5.89 2.546-5.89 5.966 0 3.42 2.546 5.966 5.89 5.966 2.28 0 4.142-1.178 5.054-2.926l3.534 2.014c-1.596 3.002-4.826 4.94-8.55 4.94zm15.314-14.25c0 3.458 10.222 1.368 10.222 8.398 0 3.8-3.306 5.852-7.41 5.852-3.8 0-6.536-1.71-7.752-4.446l3.534-2.052c.608 1.71 2.128 2.736 4.218 2.736 1.824 0 3.23-.608 3.23-2.128 0-3.382-10.222-1.482-10.222-8.284 0-3.572 3.078-5.814 6.954-5.814 3.116 0 5.7 1.444 7.03 3.952l-3.458 1.938c-.684-1.482-2.014-2.166-3.572-2.166-1.482 0-2.774.646-2.774 2.014zm17.518 0c0 3.458 10.222 1.368 10.222 8.398 0 3.8-3.306 5.852-7.41 5.852-3.8 0-6.536-1.71-7.752-4.446l3.534-2.052c.608 1.71 2.128 2.736 4.218 2.736 1.824 0 3.23-.608 3.23-2.128 0-3.382-10.222-1.482-10.222-8.284 0-3.572 3.078-5.814 6.954-5.814 3.116 0 5.7 1.444 7.03 3.952l-3.458 1.938c-.684-1.482-2.014-2.166-3.572-2.166-1.482 0-2.774.646-2.774 2.014z"/></g><defs><clipPath id="prefix__clip0"><path fill="#fff" d="M0 0h262v32.4H0z"/></clipPath></defs></svg>
